X: 42
T: The Ballydesmond
B: begged borrowed and stolen
M:2/4
L:1/8
R: polka
Q: 1/4=100
K:Dmajor
V:1 
|:"D"D2 FA|"D"dc BA|"Em"BE EF|"G"GA/G/ FE|
"D" D2 FA|"D"dc "G"BA|"Em"Be "A"Bc|"D"d2 d2:|
|:"Em"eB eB|eB B>c|"D"dA dA|dA A>B|
 "Em"eB eB|eB B>c|"G"dB "D"AF|"Em"E2 E2:|
% abcbook-tune_id 62828a3a9b6e432fbe4a163f


% abcbook-boost 0
% abcbook-tablature 
% abcbook-transpose 
% abcbook-lastupdated 1652725431072
% abcbook-soundfonts 
% abcbook-repeats 3
% abc-sessionorg_id 531
% abc-sessionorg_setting 0
% abc-sessionorg_setting_id 531
% abc-boost 0

